Project/img/twitter.svg

<svg xmlns="http://www.w3.org/2000/svg" xmlns:xlink="http://www.w3.org/1999/xlink" preserveAspectRatio="xMidYMid" width="16" height="13" viewBox="0 0 16 13">
  <defs>
    <style>
      .cls-1 {
        fill: #95e1d3;
        fill-rule: evenodd;
      }
    </style>
  </defs>
  <path d="M10.883,0.016 C12.154,-0.007 12.831,0.457 13.477,1.045 C14.026,0.998 14.739,0.692 15.159,0.479 C15.295,0.404 15.431,0.330 15.568,0.255 C15.328,0.904 15.002,1.411 14.502,1.796 C14.392,1.882 14.281,1.997 14.142,2.052 C14.142,2.055 14.142,2.057 14.142,2.059 C14.854,2.052 15.442,1.731 16.000,1.557 C16.000,1.559 16.000,1.562 16.000,1.565 C15.707,2.031 15.310,2.503 14.887,2.842 C14.716,2.978 14.545,3.113 14.374,3.249 C14.384,4.004 14.363,4.723 14.222,5.357 C13.402,9.042 11.230,11.543 7.792,12.614 C6.557,12.999 4.562,13.158 3.147,12.806 C2.446,12.632 1.812,12.435 1.217,12.175 C0.887,12.031 0.581,11.875 0.288,11.696 C0.192,11.638 0.096,11.579 -0.000,11.520 C0.319,11.530 0.692,11.618 1.049,11.560 C1.372,11.508 1.688,11.522 1.986,11.457 C2.728,11.294 3.388,11.079 3.956,10.746 C4.231,10.585 4.649,10.396 4.845,10.164 C4.476,10.170 4.142,10.085 3.868,9.988 C2.806,9.613 2.188,8.923 1.786,7.888 C2.108,7.923 3.034,8.007 3.251,7.824 C2.846,7.802 2.457,7.567 2.178,7.393 C1.324,6.859 0.627,5.962 0.633,4.582 C0.745,4.635 0.857,4.689 0.969,4.742 C1.183,4.833 1.402,4.881 1.658,4.934 C1.766,4.956 1.982,5.020 2.106,4.973 C2.101,4.973 2.095,4.973 2.090,4.973 C1.925,4.782 1.655,4.653 1.489,4.447 C0.941,3.765 0.428,2.717 0.753,1.469 C0.835,1.152 0.966,0.873 1.105,0.615 C1.110,0.617 1.116,0.620 1.121,0.623 C1.185,0.756 1.327,0.854 1.417,0.966 C1.697,1.313 2.043,1.625 2.394,1.900 C3.593,2.837 4.673,3.414 6.406,3.840 C6.846,3.948 7.355,4.030 7.880,4.032 C7.732,3.602 7.780,2.906 7.896,2.491 C8.188,1.445 8.823,0.691 9.754,0.287 C9.976,0.191 10.223,0.120 10.482,0.064 C10.616,0.048 10.749,0.032 10.883,0.016 Z" class="cls-1"/>
</svg>

<svg xmlns="http://www.w3.org/2000/svg" width="16" height="13" preserveAspectRatio="xMidYMid"><defs><style>.cls-1 { fill: #95e1d3; fill-rule: evenodd; }</style></defs><path d="M10.88.02c1.27-.03 1.95.44 2.6 1.02.55-.04 1.26-.35 1.68-.56.13-.08.27-.15.4-.22C15.34.9 15 1.4 14.5 1.8c-.1.08-.22.2-.36.25.7 0 1.3-.32 1.86-.5-.3.48-.7.95-1.1 1.3-.18.13-.36.26-.53.4 0 .75 0 1.47-.15 2.1-.82 3.7-3 6.2-6.43 7.26-1.24.4-3.24.56-4.65.2-.7-.17-1.34-.37-1.93-.63-.33-.14-.64-.3-.93-.47-.1-.06-.2-.12-.3-.18.32 0 .7.1 1.05.04.32-.05.64-.04.94-.1.73-.17 1.4-.38 1.96-.7.27-.17.7-.36.88-.6-.36 0-.7-.07-.97-.17C2.8 9.6 2.2 8.9 1.8 7.9c.3.02 1.23.1 1.45-.08-.4-.02-.8-.25-1.07-.43C1.32 6.85.63 5.95.63 4.57c.1.05.23.1.34.16.2.1.43.14.7.2.1.02.3.08.44.03-.18-.2-.45-.32-.6-.52C.93 3.75.42 2.72.74 1.47c.08-.32.22-.6.35-.85 0 0 .02 0 .02 0 .06.14.2.23.3.35.28.34.62.66.97.93 1.2.94 2.27 1.5 4 1.94.45.1.96.2 1.48.2-.15-.44-.1-1.13.02-1.55.3-1.05.92-1.8 1.85-2.2.23-.1.47-.18.73-.24.14 0 .27-.03.4-.04z" class="cls-1"/></svg>
